X: 138
T:Missa La sol fa re mi / Credo
N: Derived from Jos1102c-Missa_La_sol_fa_re_mi-Credo.krn
C: Josquin des Prez
%%abc-version 2.0
%%abcx-abcm2ps-target-version 5.9.1 (29 Sep 2008)
%%abc-creator hum2abc beta
%%abcx-conversion-date 2019/02/12 16:15:44
%%abc-edited-by Jesse Rodin
%%abc-edited-by Jesse Rodin; Victoria Chang 2011/05/04
%%abcx-initial-encoding-date 2011/05/04/
%%humdrum-veritas 1315091038
%%humdrum-veritas-data 1176561374
%%linebreak <none>
%%barnumbers 0
L: 1/4
M: 3/1
Q: 1/2=120
%%staves [1 2 3 4]
V: 1 clef=treble
V: 2 clef=treble-8
V: 3 clef=treble-8
V: 4 clef=bass
K: C
[V:1] B8c4- | 
[V:2] E8A4- | 
[V:3] e12- | 
[V:4] E,8A,,4- | 
[V:1] c4B8 | 
[V:2] A4G3EE2B2 | 
[V:3] e12- | 
[V:4] A,,4E,8 | 
[V:1] G4A2B4c2- | 
[V:2] c2B2c2B2E2e2- | 
[V:3] e12- | 
[V:4] z2E,2A,2G,3F,E,D, | 
[V:1] cBA4^G2A4 | 
[V:2] e2c2B4A4 | 
[V:3] e12 | 
[V:4] C,3D,E,4z2A,,2 | 
[V:1] F2G2A4A4 | 
[V:2] D3EF2F2F4 | 
[V:3] d12- | 
[V:4] B,,2G,,2D,8 | 
[V:1] G2A2_B2A4G2 | 
[V:2] G2F2G2D2G4 | 
[V:3] d12 | 
[V:4] z2D,2G,2F,2_B,4 | 
[V:1] A4c3de2e2 | 
[V:2] z2e4f2g2g2 | 
[V:3] c12 | 
[V:4] A,6F,2C,4 | 
[V:1] e2f3ed4^c2 | 
[V:2] a3ga2f2e4 | 
[V:3] A12 | 
[V:4] z2D,6A,,4 | 
[V:1] d8d4 | 
[V:2] d4G2g3fd2 | 
[V:3] B12 | 
[V:4] z2G,4G,2G,2G,2 | 
[V:1] c4B2A4G2 | 
[V:2] f2e4A2B2c2 | 
[V:3] z12 | 
[V:4] A,4G,2F,2E,4 | 
[V:1] B2A3GF2E4 | 
[V:2] d2f3ed4^c2 | 
[V:3] z12 | 
[V:4] D,4z4A,4 | 
[V:1] D2d3cc4B2 | 
[V:2] d3efga4g2 | 
[V:3] z12 | 
[V:4] _B,4A,4F,2G,2 | 
[V:1] A2B3GAc2B/A/B2 | 
[V:2] f2g2e2f2d4 | 
[V:3] z12 | 
[V:4] A,2G,4F,2G,4 | 
[V:1] c6BAG4 | 
[V:2] c8B4 | 
[V:3] e12- | 
[V:4] C,8E,3F, | 
[V:1] z4c4B3A | 
[V:2] E4z4E3F | 
[V:3] e12- | 
[V:4] G,4A,4G,3F, | 
[V:1] B2c2B2c3BG2 | 
[V:2] G2A2G2A2E4 | 
[V:3] e12 | 
[V:4] E,2A,,2E,2A,,2C,4 | 
[V:1] F2D2A4_B4 | 
[V:2] z2F4F2G4 | 
[V:3] d12- | 
[V:4] D,8G,,4 | 
[V:1] A3FF4G4 | 
[V:2] A4A4_B4 | 
[V:3] d12 | 
[V:4] D,8G,,4 | 
[V:1] E2A4GFE4 | 
[V:2] A2A2A4G4 | 
[V:3] c12 | 
[V:4] A,,4F,4C,4 | 
[V:1] z2D2A4c4 | 
[V:2] z2F4D2E2F2 | 
[V:3] A12 | 
[V:4] D,8A,,4 | 
[V:1] B2G4FED2G2 | 
[V:2] G8B2c2 | 
[V:3] B8z4 | 
[V:4] z2E,4F,2G,2E,2 | 
[V:1] F2D4G2A2B2- | 
[V:2] d4B4d4 | 
[V:3] z12 | 
[V:4] F,2G,4E,2D,2G,2- | 
[V:1] BGc2B2c4BA | 
[V:2] e4e4f4 | 
[V:3] z12 | 
[V:4] G,E,A,2G,2A,4G,F, | 
[V:1] c2B2G2c4B2 | 
[V:2] e4z2e2c2d2- | 
[V:3] z12 | 
[V:4] A,2G,2C3B,A,2G,2 | 
[V:1] A2G2F4E4 | 
[V:2] d2e2f2d4^c2 | 
[V:3] z12 | 
[V:4] F,2E,2D,4z2A,2 | 
[V:1] z2D4C2B,4 | 
[V:2] d4z4z2d2 | 
[V:3] z12 | 
[V:4] G,2B,3A,A,4^G,2 | 
[V:1] A,4z4z2G2 | 
[V:2] c2e3dd4^c2 | 
[V:3] z12 | 
[V:4] A,2A,,2C,2D,2E,4 | 
[V:1] F2A3GG4^F2 | 
[V:2] d4G4A4 | 
[V:3] z12 | 
[V:4] D,4E,4D,4 | 
[V:1] G8z2G2 | 
[V:2] G4c6B2 | 
[V:3] e12- | 
[V:4] E,4z2C,2C,3D, | 
[V:1] G3AB8 | 
[V:2] B4z2G2G4 | 
[V:3] e12- | 
[V:4] E,12 | 
[V:1] c4B2G4FE | 
[V:2] A4G3FE4 | 
[V:3] e12 | 
[V:4] A,,4E,4C,4 | 
[V:1] F3DD2d4B2 | 
[V:2] z2F4F2G4 | 
[V:3] d12 | 
[V:4] D,8B,,4 | 
[V:1] c2A4GFE4 | 
[V:2] A8G4 | 
[V:3] c12 | 
[V:4] A,,4z2A,,2C,4 | 
[V:1] z2F2D2F3EED | 
[V:2] F6D2E3F | 
[V:3] A12 | 
[V:4] D,8C,3B,, | 
[V:1] D12 | 
[V:2] G8z2d2- | 
[V:3] B12- | 
[V:4] G,,12 | 
[V:1] z12 | 
[V:2] ddd2e2d3BB2- | 
[V:3] B12 | 
[V:4] G,3G,G,2G,2G,3E, | 
[V:1] z12 | 
[V:2] B2c3AA4B2 | 
[V:3] z12 | 
[V:4] E,4F,3D,D,4 | 
[V:1] z12 | 
[V:2] c2d3BB3AGF | 
[V:3] z12 | 
[V:4] E,2F,2G,3E,E,3D, | 
[V:1] z12 | 
[V:2] E2c3BA4^G2 | 
[V:3] z12 | 
[V:4] C,B,,A,,2C,2D,2B,,4 | 
[V:1] z12 | 
[V:2] A4A4B4 | 
[V:3] e12- | 
[V:4] A,,2C3B,A,4^G,2 | 
[V:1] z2c4c2B2c2 | 
[V:2] A4z2A2G2A2 | 
[V:3] e12 | 
[V:4] A,2A,,3B,,C,D,E,2C,2 | 
[V:1] A2B3GG4^F2 | 
[V:2] F2G2D2E2D2d2- | 
[V:3] d6c2A4 | 
[V:4] D,2G,,2B,,2C,2D,4 | 
[V:1] G4z2G2G2G2 | 
[V:2] dGG4d2e2g2 | 
[V:3] B12 | 
[V:4] G,,4G,4E,4 | 
[V:1] A4G2F2E4 | 
[V:2] f3defd4^c2 | 
[V:3] z12 | 
[V:4] D,4z4z4 | 
[V:1] D2G2A2B3cdc | 
[V:2] d2e2f2g3fd2 | 
[V:3] z12 | 
[V:4] z4z2G,2G,2G,2 | 
[V:1] A2c2B2A4G2 | 
[V:2] [M:3/1](3:2:8f2e2c2d3cA2c2B4 | 
[V:3] z12 | 
[V:4] A,4G,2F,2E,4 | 
[V:1] c3BAGF2G2A2 | 
[V:2] [M:3/1]A3Bc2d2G2c2 | 
[V:3] z12 | 
[V:4] z2F,4D,2E,2F,2 | 
[V:1] D2G4FED4 | 
[V:2] B2e3dc4B2 | 
[V:3] z12 | 
[V:4] G,4E,2F,2G,4 | 
[V:1] C2c2B2c3BG2 | 
[V:2] c4z2c4B2 | 
[V:3] e12 | 
[V:4] z2A,2G,2A,3G,E,2 | 
[V:1] A2_B2A2B3AF2 | 
[V:2] A2G2A2G2B2A2 | 
[V:3] d12 | 
[V:4] F,2G,2F,2G,3F,D,2 | 
[V:1] G2A4G4^F2 | 
[V:2] z2ABcde2d4- | 
[V:3] c8A4 | 
[V:4] E,2F,3E,C,2D,4 | 
[V:1] G12- | 
[V:2] d4G2d2e4 | 
[V:3] B12- | 
[V:4] [G,,4G,4]z2G,2E,3F, | 
[V:1] G12 ||  
[V:2] d12 ||  
[V:3] B12 ||  
[V:4] G,12 ||  
[V:1] [M:2/1]z8 | 
[V:2] [M:2/1]c8 | 
[V:3] [M:2/1]e8- | 
[V:4] [M:2/1]C,8 | 
[V:1] z8 | 
[V:2] c4B4 | 
[V:3] e4d4 | 
[V:4] C,4G,4 | 
[V:1] E4F4 | 
[V:2] c4d4 | 
[V:3] c4A4 | 
[V:4] A,4F,4 | 
[V:1] G4G4 | 
[V:2] e8 | 
[V:3] B8 | 
[V:4] E,8- | 
[V:1] G4G4 | 
[V:2] z4B4 | 
[V:3] e8- | 
[V:4] E,8 | 
[V:1] G8 | 
[V:2] c4c4 | 
[V:3] e8 | 
[V:4] C,8 | 
[V:1] F4D4 | 
[V:2] A8 | 
[V:3] d8 | 
[V:4] D,8 | 
[V:1] E4F4 | 
[V:2] A8 | 
[V:3] c4A4 | 
[V:4] A,,8 | 
[V:1] G8 | 
[V:2] E4e4 | 
[V:3] B8 | 
[V:4] E,8 | 
[V:1] A8 | 
[V:2] d2c4BA | 
[V:3] z8 | 
[V:4] F,8 | 
[V:1] z8 | 
[V:2] c2B2A2G2 | 
[V:3] e8 | 
[V:4] C,8 | 
[V:1] A8 | 
[V:2] F8 | 
[V:3] d8- | 
[V:4] D,8 | 
[V:1] _B8 | 
[V:2] G8 | 
[V:3] d8- | 
[V:4] G,,8 | 
[V:1] A4F4 | 
[V:2] A8 | 
[V:3] d8 | 
[V:4] D,8 | 
[V:1] G4A4- | 
[V:2] G4c4 | 
[V:3] c4A4 | 
[V:4] E,4F,4 | 
[V:1] A2G2G4- | 
[V:2] B4G4 | 
[V:3] B8 | 
[V:4] G,4E,4 | 
[V:1] G4F4 | 
[V:2] A6B2 | 
[V:3] z8 | 
[V:4] D,8 | 
[V:1] G8- | 
[V:2] c8- | 
[V:3] e8- | 
[V:4] C,8- | 
[V:1] G8 | 
[V:2] c8 | 
[V:3] e8 | 
[V:4] C,8 | 
[V:1] F8 | 
[V:2] A8 | 
[V:3] d8- | 
[V:4] D,8 | 
[V:1] G8 | 
[V:2] _B8 | 
[V:3] d8- | 
[V:4] G,,8 | 
[V:1] F8- | 
[V:2] A8- | 
[V:3] d8 | 
[V:4] D,8 | 
[V:1] F8 | 
[V:2] A8 | 
[V:3] c8- | 
[V:4] F,8 | 
[V:1] E8 | 
[V:2] G8 | 
[V:3] c8 | 
[V:4] C,8 | 
[V:1] F8- | 
[V:2] F8- | 
[V:3] A8- | 
[V:4] D,8- | 
[V:1] F4D4 | 
[V:2] F4G4 | 
[V:3] A4B4 | 
[V:4] D,4G,,4 | 
[V:1] D8 ||  
[V:2] G8 ||  
[V:3] B8 ||  
[V:4] G,,8 ||  
[V:1] [M:2/1]z8 | 
[V:2] [M:2/1]z8 | 
[V:3] [M:2/1]e4d4 | 
[V:4] [M:2/1]z4G,4 | 
[V:1] z8 | 
[V:2] z4d4 | 
[V:3] c2A2B4 | 
[V:4] A,4G,4 | 
[V:1] G4A4 | 
[V:2] e4d4 | 
[V:3] z8 | 
[V:4] E,4F,2D,2 | 
[V:1] G6FE | 
[V:2] B3EE2B2 | 
[V:3] z4e4- | 
[V:4] E,3F,G,4 | 
[V:1] E2G2F2D2 | 
[V:2] c2B2z2B2 | 
[V:3] e4d4 | 
[V:4] A,2E,2F,2G,2 | 
[V:1] E2F2G4 | 
[V:2] c3de4 | 
[V:3] c2A2B4 | 
[V:4] C,2F,2E,4 | 
[V:1] A8 | 
[V:2] c6BA | 
[V:3] z4e4- | 
[V:4] A,,2A,4G,F, | 
[V:1] z8 | 
[V:2] c2B2A2c2 | 
[V:3] e8 | 
[V:4] A,2G,2C4 | 
[V:1] z8 | 
[V:2] d2e3cd2 | 
[V:3] d2c2A4 | 
[V:4] B,2A,4G,F, | 
[V:1] z4z2B2- | 
[V:2] e3fg4- | 
[V:3] B4e4- | 
[V:4] E,8 | 
[V:1] B2c2B2c2- | 
[V:2] g2c2g2c2 | 
[V:3] e8- | 
[V:4] z8 | 
[V:1] cBG2A2B2- | 
[V:2] g4f4 | 
[V:3] e4d4 | 
[V:4] z8 | 
[V:1] BAA4^G2 | 
[V:2] e2c2d3e | 
[V:3] c2A2B4 | 
[V:4] z8 | 
[V:1] A2c2B2c2- | 
[V:2] f2e3dcB | 
[V:3] z4e4- | 
[V:4] z2A,2G,2A,2- | 
[V:1] c2BAc2B2- | 
[V:2] A2c4g2- | 
[V:3] e8- | 
[V:4] A,2G,F,A,2G,2 | 
[V:1] B2c2A2B2- | 
[V:2] g2e2f2d2 | 
[V:3] e4d4 | 
[V:4] E,2A,2F,2G,2 | 
[V:1] BAA4GF | 
[V:2] e2c2d2B2- | 
[V:3] c2A2B4 | 
[V:4] E,2F,2D,2E,2- | 
[V:1] G2A2B4 | 
[V:2] BAA4^G2 | 
[V:3] e4d4 | 
[V:4] E,2C,2B,,4 | 
[V:1] E2c2B2G2 | 
[V:2] A4E2B2 | 
[V:3] c2A2B4 | 
[V:4] A,,4z4 | 
[V:1] A3GE2B2 | 
[V:2] A2c3BG2 | 
[V:3] z8 | 
[V:4] z8 | 
[V:1] A2c3BG2 | 
[V:2] A3GE2B2 | 
[V:3] z8 | 
[V:4] z8 | 
[V:1] A4G2d2 | 
[V:2] A2c3BG2 | 
[V:3] z8 | 
[V:4] z8 | 
[V:1] c2e3dB2 | 
[V:2] A4G2d2 | 
[V:3] z8 | 
[V:4] z8 | 
[V:1] c3BG2d2 | 
[V:2] c2e3dB2 | 
[V:3] z8 | 
[V:4] z8 | 
[V:1] c2e3dB2 | 
[V:2] c3BG2d2 | 
[V:3] z8 | 
[V:4] z8 | 
[V:1] c3BGAB2- | 
[V:2] c2g3ff2- | 
[V:3] e6d2 | 
[V:4] z8 | 
[V:1] BAA4GF | 
[V:2] fee4d2 | 
[V:3] c2A2B4 | 
[V:4] z8 | 
[V:1] G2A2D4 | 
[V:2] e2A2B2G2- | 
[V:3] z8 | 
[V:4] E,2F,2G,4 | 
[V:1] z8 | 
[V:2] G2FEG2A2 | 
[V:3] z2e2d2c2 | 
[V:4] E,F,G,A,B,2C2- | 
[V:1] z8 | 
[V:2] F4E2B2 | 
[V:3] A4B4 | 
[V:4] CB,A,4G,2 | 
[V:1] E2F2G4 | 
[V:2] c2d2B2e2- | 
[V:3] z8 | 
[V:4] A,2D,2E,3C, | 
[V:1] EFGAB2c2- | 
[V:2] edc2B2A2- | 
[V:3] z2e2d2c2 | 
[V:4] C,4z4 | 
[V:1] cBA4^G2 | 
[V:2] AGF2E4 | 
[V:3] A4B4 | 
[V:4] z8 | 
[V:1] A8 | 
[V:2] e4f4 | 
[V:3] z4A4- | 
[V:4] A,,4D,4 | 
[V:1] z8 | 
[V:2] e2c2d2e2 | 
[V:3] A4G4 | 
[V:4] C,2A,,2B,,2C,2 | 
[V:1] z8 | 
[V:2] A2d4^c2 | 
[V:3] F2D2E4 | 
[V:4] D,2B,,2A,,4 | 
[V:1] z8 | 
[V:2] d2f2e2c2 | 
[V:3] z4z2e2- | 
[V:4] D,4A,4 | 
[V:1] B4c4 | 
[V:2] g3fede2- | 
[V:3] e2d2c2A2 | 
[V:4] G,4A,4 | 
[V:1] B2G2A2B2 | 
[V:2] e2B2c2d2 | 
[V:3] B2e4d2 | 
[V:4] E,3D,C,2B,,2 | 
[V:1] E2A4GF | 
[V:2] e8 | 
[V:3] c2A2B4 | 
[V:4] A,,4E,4 | 
[V:1] G4z4 | 
[V:2] z2E2F2G2 | 
[V:3] e4d4 | 
[V:4] z2C,2D,2B,,2 | 
[V:1] E3FG2G2 | 
[V:2] A3GE4 | 
[V:3] c2A2B4- | 
[V:4] A,,4z2E,2 | 
[V:1] G2G2G2G2 | 
[V:2] z2e2e2e2 | 
[V:3] B4z4 | 
[V:4] E,2E,2E,4 | 
[V:1] G4z4 | 
[V:2] e2E2F2G2 | 
[V:3] e4d4 | 
[V:4] z2C,2D,2B,,2 | 
[V:1] z2A2G2F2 | 
[V:2] A3GE2D2 | 
[V:3] c2A2B4 | 
[V:4] A,,4z4 | 
[V:1] E3DC2B,2 | 
[V:2] A4z4 | 
[V:3] z2e4d2 | 
[V:4] z8 | 
[V:1] A,2A4^G2 | 
[V:2] z8 | 
[V:3] c2A2B4 | 
[V:4] z4E,4 | 
[V:1] A4z4 | 
[V:2] z8 | 
[V:3] z2A4G2 | 
[V:4] F,2E,D,F,2E,2- | 
[V:1] z8 | 
[V:2] z4z2e2 | 
[V:3] F2D2E4 | 
[V:4] E,D,D,4^C,2 | 
[V:1] z8 | 
[V:2] f2edf2e2- | 
[V:3] z2A4G2 | 
[V:4] D,4z4 | 
[V:1] z8 | 
[V:2] edd4^c2 | 
[V:3] F2D2E4 | 
[V:4] z4z2E,2 | 
[V:1] z4z2B2 | 
[V:2] d2A3FG2 | 
[V:3] z8 | 
[V:4] F,2E,D,F,2E,2 | 
[V:1] c2BAc2B2- | 
[V:2] A4z4 | 
[V:3] z2e4d2 | 
[V:4] A,,4z4 | 
[V:1] BAA4^G2 | 
[V:2] z8 | 
[V:3] c2A2B4 | 
[V:4] z8 | 
[V:1] (3A4E4F4 | 
[V:2] [M:2/1](3:2:2c8A4 | 
[V:3] [M:2/1](3:2:1z12 | 
[V:4] [M:2/1](3:2:2A,8F,4 | 
[V:1] (3:2:2G8G4- | 
[V:2] (3B4E6F2 | 
[V:3] (3:2:1e12- | 
[V:4] (3E,6F,2G,4 | 
[V:1] (3:2:2G4G8 | 
[V:2] (3G4C4c4 | 
[V:3] (3:2:1e12 | 
[V:4] (3:2:1C,12 | 
[V:1] (3F4A6G2 | 
[V:2] (3A4f6e2 | 
[V:3] (3:2:2d8c4- | 
[V:4] (3:2:2D,8A,,4 | 
[V:1] (3G4c6B2 | 
[V:2] (3e4E4F4 | 
[V:3] (3:2:2c4A8 | 
[V:4] (3C,6B,,2A,,4 | 
[V:1] (3B4A6G2 | 
[V:2] (3:2:2G4c8 | 
[V:3] (3:2:2B4e8 | 
[V:4] (3:2:2G,,4A,,8 | 
[V:1] (3:2:2G8^F4 | 
[V:2] (3:2:2B4A8 | 
[V:3] (3d4c4A4 | 
[V:4] (3B,,4C,4D,4 | 
[V:1] G8- | 
[V:2] [M:2/1]G6FE | 
[V:3] [M:2/1]B8- | 
[V:4] [M:2/1]G,,4G,4- | 
[V:1] G8 | 
[V:2] E4z2G2- | 
[V:3] B8- | 
[V:4] G,2F,E,E,4 | 
[V:1] z4z2G,2- | 
[V:2] GFE2D2E2- | 
[V:3] B8- | 
[V:4] z2G,2F,2G,2- | 
[V:1] G,A,B,CD2B,2 | 
[V:2] E2G4F2 | 
[V:3] B8 | 
[V:4] G,2E,2D,4 | 
[V:1] [M:3/1]C12 | 
[V:2] [M:3/1]G8c4 | 
[V:3] [M:3/1]z4e8 | 
[V:4] C,8C,4 | 
[V:1] z4E4F4 | 
[V:2] B4c4d4 | 
[V:3] d4c4A4 | 
[V:4] G,4A,4F,4 | 
[V:1] G4G4G4- | 
[V:2] e8B4 | 
[V:3] B8e4- | 
[V:4] E,12 | 
[V:1] G4G8 | 
[V:2] c6d2e4 | 
[V:3] e12 | 
[V:4] z12 | 
[V:1] A6G2A4 | 
[V:2] f4c6d2 | 
[V:3] d4c4A4- | 
[V:4] z12 | 
[V:1] F4E8 | 
[V:2] d8^c4 | 
[V:3] A12 | 
[V:4] z12 | 
[V:1] [M:2/1]D4z2D2 | 
[V:2] [M:2/1]d2B2dcBA | 
[V:3] [M:2/1]B8- | 
[V:4] z4G,4 | 
[V:1] E2D4G2- | 
[V:2] G4z2G2 | 
[V:3] B8- | 
[V:4] E,2F,2G,4 | 
[V:1] G2FED4 | 
[V:2] E2F2G2d2 | 
[V:3] B8- | 
[V:4] z4z2G,2 | 
[V:1] G,4z2D2 | 
[V:2] e2d4g2- | 
[V:3] B8- | 
[V:4] E,2F,2G,4 | 
[V:1] E2D4G2- | 
[V:2] g2fed4 | 
[V:3] B8- | 
[V:4] z4z2G,2 | 
[V:1] G2FED4 | 
[V:2] G4z4 | 
[V:3] B8 | 
[V:4] E,2F,2G,4 | 
[V:1] [M:2/1](3:2:2C8G4 | 
[V:2] (3:2:2c8d4 | 
[V:3] [M:2/1](3:2:2e8d4 | 
[V:4] [M:2/1](3C,4C4B,4 | 
[V:1] (3:2:2A8A4 | 
[V:2] (3e4c4d4 | 
[V:3] (3:2:2c8A4 | 
[V:4] (3A,6G,2F,4 | 
[V:1] (3G6A2B4 | 
[V:2] (3:2:2e8z4 | 
[V:3] (3B4e4d4 | 
[V:4] (3:2:2E,8G,4 | 
[V:1] (3c4A4c4 | 
[V:2] (3:2:2e8f4 | 
[V:3] (3:2:2c8A4 | 
[V:4] (3:2:2A,8A,4 | 
[V:1] (3B4G4B4 | 
[V:2] (3g4c4d4 | 
[V:3] (3B4e4d4 | 
[V:4] (3G,4C4B,4 | 
[V:1] (3:2:2c4A8 | 
[V:2] (3e4c4d4 | 
[V:3] (3:2:2c8A4 | 
[V:4] (3A,6G,2F,4 | 
[V:1] [M:2/1]G8 | 
[V:2] e3fg2G2 | 
[V:3] [M:2/1]B4e4- | 
[V:4] [M:2/1]E,8 | 
[V:1] z4F4 | 
[V:2] c4z4 | 
[V:3] e4d4 | 
[V:4] z2C,2D,2B,,2 | 
[V:1] E4D4 | 
[V:2] z2c2d2B2 | 
[V:3] c2A2B4 | 
[V:4] C,4z4 | 
[V:1] C4F4 | 
[V:2] c4z4 | 
[V:3] e4d4 | 
[V:4] z2C,2D,2B,,2 | 
[V:1] E4D4 | 
[V:2] z2c2d2B2 | 
[V:3] c2A2B4 | 
[V:4] C,4z4 | 
[V:1] [M:3/1]C8G4 | 
[V:2] [M:3/1]c8c4 | 
[V:3] [M:3/1]e12 | 
[V:4] C,8C,4 | 
[V:1] G8G4 | 
[V:2] B8G4 | 
[V:3] d12 | 
[V:4] G,6A,2B,4 | 
[V:1] E4F6E2 | 
[V:2] A6B2c4 | 
[V:3] c8A4 | 
[V:4] C4A,8 | 
[V:1] G8z4 | 
[V:2] d8z4 | 
[V:3] B8z4 | 
[V:4] G,8z4 | 
[V:1] G8G4 | 
[V:2] c8c4 | 
[V:3] e12 | 
[V:4] C,8C,4 | 
[V:1] G8G4 | 
[V:2] B8G4 | 
[V:3] d12 | 
[V:4] G,6A,2B,4 | 
[V:1] G4A8 | 
[V:2] e8f4 | 
[V:3] c8A4 | 
[V:4] C4A,8 | 
[V:1] [M:2/1]D4z4 | 
[V:2] [M:2/1]g8 | 
[V:3] [M:2/1]B8 | 
[V:4] G,8 | 
[V:1] G6F2 | 
[V:2] z8 | 
[V:3] z2e4d2 | 
[V:4] z8 | 
[V:1] E4D4 | 
[V:2] z8 | 
[V:3] c2A2B4 | 
[V:4] z8 | 
[V:1] C2G4F2 | 
[V:2] z8 | 
[V:3] z2e4d2 | 
[V:4] z8 | 
[V:1] E2C2D4 | 
[V:2] z8 | 
[V:3] c2A2B4 | 
[V:4] z8 | 
[V:1] C4z4 | 
[V:2] g6f2 | 
[V:3] z2e4d2 | 
[V:4] z8 | 
[V:1] z8 | 
[V:2] e4d4 | 
[V:3] c2A2B4 | 
[V:4] z8 | 
[V:1] z8 | 
[V:2] c2g4f2 | 
[V:3] z2e4d2 | 
[V:4] z8 | 
[V:1] z8 | 
[V:2] e2c2d4 | 
[V:3] c2A2B4 | 
[V:4] z8 | 
[V:1] z4z2G2 | 
[V:2] c8 | 
[V:3] e8 | 
[V:4] z4z2C,2 | 
[V:1] G2G2E3F | 
[V:2] z2B2c4 | 
[V:3] d4c2A2 | 
[V:4] G,4A,4 | 
[V:1] G8 | 
[V:2] d4c4 | 
[V:3] B4e4- | 
[V:4] G,4C,4 | 
[V:1] z2G2A2B2 | 
[V:2] g4z2g2 | 
[V:3] e4d4 | 
[V:4] z4z2G,2 | 
[V:1] c4z2G2- | 
[V:2] e2f2g4 | 
[V:3] c2A2B4 | 
[V:4] A,4G,4 | 
[V:1] G2G2A2B2 | 
[V:2] z2g2f2g2 | 
[V:3] e4d4 | 
[V:4] C,4z2G,2 | 
[V:1] c4z4 | 
[V:2] e2f2d2e2- | 
[V:3] c2A2B4 | 
[V:4] A,2F,2G,2E,2 | 
[V:1] z2G2A2B2 | 
[V:2] e2c4B2 | 
[V:3] e6d2 | 
[V:4] C,4z2G,2 | 
[V:1] c4z2G2- | 
[V:2] A4G4 | 
[V:3] c2A2B4 | 
[V:4] A,2F,2G,F,E,D, | 
[V:1] G2G2A3G | 
[V:2] z8 | 
[V:3] e6d2 | 
[V:4] C,2C4B,2 | 
[V:1] FEE4D2 | 
[V:2] z4a4 | 
[V:3] c4A4 | 
[V:4] A,2G,2F,4 | 
[V:1] E8 | 
[V:2] g2g4fe | 
[V:3] B4e4 | 
[V:4] E,8 | 
[V:1] z8 | 
[V:2] f3ge2c2 | 
[V:3] d4c2A2 | 
[V:4] z4A,4 | 
[V:1] z8 | 
[V:2] d2e2d2e2- | 
[V:3] B4z4 | 
[V:4] G,2G,4F,E, | 
[V:1] A4G2G2- | 
[V:2] e2d2e4 | 
[V:3] z8 | 
[V:4] F,3G,E,4- | 
[V:1] G2FEF3G | 
[V:2] z8 | 
[V:3] e4d4 | 
[V:4] E,4z4 | 
[V:1] E2C2D2E2 | 
[V:2] z8 | 
[V:3] c2A2B4 | 
[V:4] A,4G,2G,2- | 
[V:1] D2E4D2 | 
[V:2] z4a4 | 
[V:3] z8 | 
[V:4] G,2F,E,F,3G, | 
[V:1] E4G4 | 
[V:2] g2g4fe | 
[V:3] z4e4 | 
[V:4] E,8 | 
[V:1] A4c4 | 
[V:2] f3ge4 | 
[V:3] d4c2A2 | 
[V:4] z8 | 
[V:1] B2G4FE | 
[V:2] z8 | 
[V:3] B4e4 | 
[V:4] z2E,4C,2 | 
[V:1] F2E4D2 | 
[V:2] z4a4 | 
[V:3] d2c2A4 | 
[V:4] D,2E,2F,4 | 
[V:1] E4z4 | 
[V:2] g2e2f2e2- | 
[V:3] B2e2d2c2 | 
[V:4] E,2C,2D,2E,2 | 
[V:1] z2A2G2c2 | 
[V:2] ecd2e2g2 | 
[V:3] A4B2e2 | 
[V:4] F,4E,2C,2 | 
[V:1] B2c4BA | 
[V:2] f2e3cd2 | 
[V:3] d2c2A4 | 
[V:4] D,2E,2F,4 | 
[V:1] G8 | 
[V:2] e3dc2B2 | 
[V:3] B2e4d2 | 
[V:4] E,8- | 
[V:1] z4G4 | 
[V:2] e6d2 | 
[V:3] c2A2B4 | 
[V:4] E,8 | 
[V:1] A4G4 | 
[V:2] c2A2B4 | 
[V:3] z2e4d2 | 
[V:4] z4G,4 | 
[V:1] E4z4 | 
[V:2] z4d4 | 
[V:3] c2A2B4 | 
[V:4] A,4G,4 | 
[V:1] z8 | 
[V:2] e4d4 | 
[V:3] z8 | 
[V:4] E,4F,2D,2 | 
[V:1] z4F2D2 | 
[V:2] B2c2A2B2 | 
[V:3] e4d4 | 
[V:4] E,2C,2D,3C, | 
[V:1] E2F2G4 | 
[V:2] c3de4 | 
[V:3] c2A2B2e2 | 
[V:4] A,,4E,4 | 
[V:1] A4z2c2 | 
[V:2] A3Bc3B | 
[V:3] d2c2A4 | 
[V:4] F,6E,F, | 
[V:1] B2d2c3B | 
[V:2] G2B2A2c2- | 
[V:3] B4z2e2- | 
[V:4] G,4z4 | 
[V:1] AGG4^F2 | 
[V:2] c2B2A4 | 
[V:3] e2d2c2A2 | 
[V:4] z8 | 
[V:1] G8 | 
[V:2] G4z2G2 | 
[V:3] B8- | 
[V:4] z2G,2G,3E, | 
[V:1] z2G2G3E | 
[V:2] G3EE2e2 | 
[V:3] B8 | 
[V:4] E,4z2E,2 | 
[V:1] E4z2E2- | 
[V:2] e3cc3A | 
[V:3] z2A4G2 | 
[V:4] C,3A,,A,,2C,2 | 
[V:1] EDD4^C2 | 
[V:2] A2G2A4 | 
[V:3] F2D2E4 | 
[V:4] D,2B,,2A,,4 | 
[V:1] D3EFGA2- | 
[V:2] DEFGA3B | 
[V:3] z8 | 
[V:4] z2D,3E,F,G, | 
[V:1] ABcBGAB2- | 
[V:2] c3defg2 | 
[V:3] z2e4d2 | 
[V:4] A,3B,C2G,2 | 
[V:1] BAA4^G2 | 
[V:2] e2d2e4 | 
[V:3] c2A2B4 | 
[V:4] A,2F,2E,4 | 
[V:1] A4c4- | 
[V:2] c2A2a4 | 
[V:3] z4e4- | 
[V:4] A,6B,2 | 
[V:1] c4B4 | 
[V:2] g6f2 | 
[V:3] e4d4 | 
[V:4] C4G,4 | 
[V:1] A4G4 | 
[V:2] e6d2 | 
[V:3] c2A2B4 | 
[V:4] A,4E,4 | 
[V:1] F4E4 | 
[V:2] c6B2 | 
[V:3] z2A4G2 | 
[V:4] F,4C,4 | 
[V:1] D8 | 
[V:2] A4G4 | 
[V:3] F4D4 | 
[V:4] D,4B,,4 | 
[V:1] z4C4 | 
[V:2] A8 | 
[V:3] E4A4- | 
[V:4] A,,4F,4- | 
[V:1] D4E4 | 
[V:2] D4G4 | 
[V:3] A4G4 | 
[V:4] F,4E,4 | 
[V:1] F8 | 
[V:2] A6B2 | 
[V:3] F4D4 | 
[V:4] D,8 | 
[V:1] E4G4 | 
[V:2] c4C4 | 
[V:3] E4e4 | 
[V:4] C,8 | 
[V:1] F3EE4- | 
[V:2] D4E4 | 
[V:3] d4c4 | 
[V:4] z4C,4 | 
[V:1] E4D4 | 
[V:2] F8 | 
[V:3] A8- | 
[V:4] D,8 | 
[V:1] E8- | 
[V:2] E8- | 
[V:3] A8 | 
[V:4] A,,8 | 
[V:1] E8 |]  
[V:2] E8 |]  
[V:3] B8 |]  
[V:4] E,8 |]  



